X: 18298
T: Humours Of Tulla, The
R: reel
M: 4/4
K: Dmajor
|:d2Ad BdAB|d2fd edBc|d2Ad BdAd|1 (3Bcd ef g2fe:|2 (3Bcd ef g2fg||
|:af~f2 df~f2|af~f2 g2fg|af~f2 dfed|1 (3Bcd ef g2fg:|2 (3Bcd ef g2fe||

